dist/images/icons/logo.svg

<svg width="150" height="27" viewBox="0 0 150 27" fill="none" xmlns="http://www.w3.org/2000/svg">
<path d="M10.052 26.216C8.18 26.216 6.38 25.916 4.652 25.316C2.948 24.716 1.628 23.924 0.692 22.94L1.736 20.888C2.648 21.8 3.86 22.544 5.372 23.12C6.884 23.672 8.444 23.948 10.052 23.948C12.308 23.948 14 23.54 15.128 22.724C16.256 21.884 16.82 20.804 16.82 19.484C16.82 18.476 16.508 17.672 15.884 17.072C15.284 16.472 14.54 16.016 13.652 15.704C12.764 15.368 11.528 15.008 9.944 14.624C8.048 14.144 6.536 13.688 5.408 13.256C4.28 12.8 3.308 12.116 2.492 11.204C1.7 10.292 1.304 9.056 1.304 7.496C1.304 6.224 1.64 5.072 2.312 4.04C2.984 2.984 4.016 2.144 5.408 1.52C6.8 0.895999 8.528 0.583999 10.592 0.583999C12.032 0.583999 13.436 0.787999 14.804 1.196C16.196 1.58 17.396 2.12 18.404 2.816L17.504 4.94C16.448 4.244 15.32 3.728 14.12 3.392C12.92 3.032 11.744 2.852 10.592 2.852C8.384 2.852 6.716 3.284 5.588 4.148C4.484 4.988 3.932 6.08 3.932 7.424C3.932 8.432 4.232 9.248 4.832 9.872C5.456 10.472 6.224 10.94 7.136 11.276C8.072 11.588 9.32 11.936 10.88 12.32C12.728 12.776 14.216 13.232 15.344 13.688C16.496 14.12 17.468 14.792 18.26 15.704C19.052 16.592 19.448 17.804 19.448 19.34C19.448 20.612 19.1 21.776 18.404 22.832C17.732 23.864 16.688 24.692 15.272 25.316C13.856 25.916 12.116 26.216 10.052 26.216ZM32.2004 26.216C30.3284 26.216 28.5284 25.916 26.8004 25.316C25.0964 24.716 23.7764 23.924 22.8404 22.94L23.8844 20.888C24.7964 21.8 26.0084 22.544 27.5204 23.12C29.0324 23.672 30.5924 23.948 32.2004 23.948C34.4564 23.948 36.1484 23.54 37.2764 22.724C38.4044 21.884 38.9684 20.804 38.9684 19.484C38.9684 18.476 38.6564 17.672 38.0324 17.072C37.4324 16.472 36.6884 16.016 35.8004 15.704C34.9124 15.368 33.6764 15.008 32.0924 14.624C30.1964 14.144 28.6844 13.688 27.5564 13.256C26.4284 12.8 25.4564 12.116 24.6404 11.204C23.8484 10.292 23.4524 9.056 23.4524 7.496C23.4524 6.224 23.7884 5.072 24.4604 4.04C25.1324 2.984 26.1644 2.144 27.5564 1.52C28.9484 0.895999 30.6764 0.583999 32.7404 0.583999C34.1804 0.583999 35.5844 0.787999 36.9524 1.196C38.3444 1.58 39.5444 2.12 40.5524 2.816L39.6524 4.94C38.5964 4.244 37.4684 3.728 36.2684 3.392C35.0684 3.032 33.8924 2.852 32.7404 2.852C30.5324 2.852 28.8644 3.284 27.7364 4.148C26.6324 4.988 26.0804 6.08 26.0804 7.424C26.0804 8.432 26.3804 9.248 26.9804 9.872C27.6044 10.472 28.3724 10.94 29.2844 11.276C30.2204 11.588 31.4684 11.936 33.0284 12.32C34.8764 12.776 36.3644 13.232 37.4924 13.688C38.6444 14.12 39.6164 14.792 40.4084 15.704C41.2004 16.592 41.5964 17.804 41.5964 19.34C41.5964 20.612 41.2484 21.776 40.5524 22.832C39.8804 23.864 38.8364 24.692 37.4204 25.316C36.0044 25.916 34.2644 26.216 32.2004 26.216ZM68.4609 0.799998V26H65.8329V14.372H50.0649V26H47.4009V0.799998H50.0649V12.032H65.8329V0.799998H68.4609ZM76.686 0.799998H79.35V26H76.686V0.799998ZM104.757 26L98.9973 17.9C98.3493 17.972 97.6773 18.008 96.9813 18.008H90.2133V26H87.5493V0.799998H96.9813C100.197 0.799998 102.717 1.568 104.541 3.104C106.365 4.64 107.277 6.752 107.277 9.44C107.277 11.408 106.773 13.076 105.765 14.444C104.781 15.788 103.365 16.76 101.517 17.36L107.673 26H104.757ZM96.9093 15.74C99.4053 15.74 101.313 15.188 102.633 14.084C103.953 12.98 104.613 11.432 104.613 9.44C104.613 7.4 103.953 5.84 102.633 4.76C101.313 3.656 99.4053 3.104 96.9093 3.104H90.2133V15.74H96.9093ZM118.109 3.104H109.253V0.799998H129.629V3.104H120.773V26H118.109V3.104ZM140.447 26.216C138.575 26.216 136.775 25.916 135.047 25.316C133.343 24.716 132.023 23.924 131.087 22.94L132.131 20.888C133.043 21.8 134.255 22.544 135.767 23.12C137.279 23.672 138.839 23.948 140.447 23.948C142.703 23.948 144.395 23.54 145.523 22.724C146.651 21.884 147.215 20.804 147.215 19.484C147.215 18.476 146.903 17.672 146.279 17.072C145.679 16.472 144.935 16.016 144.047 15.704C143.159 15.368 141.923 15.008 140.339 14.624C138.443 14.144 136.931 13.688 135.803 13.256C134.675 12.8 133.703 12.116 132.887 11.204C132.095 10.292 131.699 9.056 131.699 7.496C131.699 6.224 132.035 5.072 132.707 4.04C133.379 2.984 134.411 2.144 135.803 1.52C137.195 0.895999 138.923 0.583999 140.987 0.583999C142.427 0.583999 143.831 0.787999 145.199 1.196C146.591 1.58 147.791 2.12 148.799 2.816L147.899 4.94C146.843 4.244 145.715 3.728 144.515 3.392C143.315 3.032 142.139 2.852 140.987 2.852C138.779 2.852 137.111 3.284 135.983 4.148C134.879 4.988 134.327 6.08 134.327 7.424C134.327 8.432 134.627 9.248 135.227 9.872C135.851 10.472 136.619 10.94 137.531 11.276C138.467 11.588 139.715 11.936 141.275 12.32C143.123 12.776 144.611 13.232 145.739 13.688C146.891 14.12 147.863 14.792 148.655 15.704C149.447 16.592 149.843 17.804 149.843 19.34C149.843 20.612 149.495 21.776 148.799 22.832C148.127 23.864 147.083 24.692 145.667 25.316C144.251 25.916 142.511 26.216 140.447 26.216Z" fill="#232323"/>
</svg>

<svg width="150" height="27" fill="none" xmlns="http://www.w3.org/2000/svg"><path d="M10.052 26.216c-1.872 0-3.672-.3-5.4-.9-1.704-.6-3.024-1.392-3.96-2.376l1.044-2.052c.912.912 2.124 1.656 3.636 2.232 1.512.552 3.072.828 4.68.828 2.256 0 3.948-.408 5.076-1.224 1.128-.84 1.692-1.92 1.692-3.24 0-1.008-.312-1.812-.936-2.412-.6-.6-1.344-1.056-2.232-1.368-.888-.336-2.124-.696-3.708-1.08-1.896-.48-3.408-.936-4.536-1.368a7.774 7.774 0 01-2.916-2.052c-.792-.912-1.188-2.148-1.188-3.708 0-1.272.336-2.424 1.008-3.456.672-1.056 1.704-1.896 3.096-2.52C6.8.896 8.528.584 10.592.584c1.44 0 2.844.204 4.212.612 1.392.384 2.592.924 3.6 1.62l-.9 2.124a11.991 11.991 0 00-3.384-1.548 12.24 12.24 0 00-3.528-.54c-2.208 0-3.876.432-5.004 1.296-1.104.84-1.656 1.932-1.656 3.276 0 1.008.3 1.824.9 2.448.624.6 1.392 1.068 2.304 1.404.936.312 2.184.66 3.744 1.044 1.848.456 3.336.912 4.464 1.368a7.1 7.1 0 012.916 2.016c.792.888 1.188 2.1 1.188 3.636a6.213 6.213 0 01-1.044 3.492c-.672 1.032-1.716 1.86-3.132 2.484-1.416.6-3.156.9-5.22.9zm22.148 0c-1.872 0-3.672-.3-5.4-.9-1.704-.6-3.024-1.392-3.96-2.376l1.044-2.052c.912.912 2.124 1.656 3.636 2.232 1.512.552 3.072.828 4.68.828 2.256 0 3.948-.408 5.076-1.224 1.128-.84 1.692-1.92 1.692-3.24 0-1.008-.312-1.812-.936-2.412-.6-.6-1.344-1.056-2.232-1.368-.888-.336-2.124-.696-3.708-1.08-1.896-.48-3.408-.936-4.536-1.368a7.774 7.774 0 01-2.916-2.052c-.792-.912-1.188-2.148-1.188-3.708 0-1.272.336-2.424 1.008-3.456.672-1.056 1.704-1.896 3.096-2.52 1.392-.624 3.12-.936 5.184-.936 1.44 0 2.844.204 4.212.612 1.392.384 2.592.924 3.6 1.62l-.9 2.124a11.991 11.991 0 00-3.384-1.548 12.24 12.24 0 00-3.528-.54c-2.208 0-3.876.432-5.004 1.296-1.104.84-1.656 1.932-1.656 3.276 0 1.008.3 1.824.9 2.448.624.6 1.392 1.068 2.304 1.404.936.312 2.184.66 3.744 1.044 1.848.456 3.336.912 4.464 1.368a7.1 7.1 0 012.916 2.016c.792.888 1.188 2.1 1.188 3.636a6.213 6.213 0 01-1.044 3.492c-.672 1.032-1.716 1.86-3.132 2.484-1.416.6-3.156.9-5.22.9zM68.46.8V26h-2.627V14.372H50.065V26H47.4V.8h2.664v11.232h15.768V.8h2.628zm8.226 0h2.664V26h-2.664V.8zM104.757 26l-5.76-8.1c-.648.072-1.32.108-2.016.108h-6.768V26H87.55V.8h9.432c3.216 0 5.736.768 7.56 2.304 1.824 1.536 2.736 3.648 2.736 6.336 0 1.968-.504 3.636-1.512 5.004-.984 1.344-2.4 2.316-4.248 2.916l6.156 8.64h-2.916zm-7.848-10.26c2.496 0 4.404-.552 5.724-1.656 1.32-1.104 1.98-2.652 1.98-4.644 0-2.04-.66-3.6-1.98-4.68-1.32-1.104-3.228-1.656-5.724-1.656h-6.696V15.74h6.696zm21.2-12.636h-8.856V.8h20.376v2.304h-8.856V26h-2.664V3.104zm22.338 23.112c-1.872 0-3.672-.3-5.4-.9-1.704-.6-3.024-1.392-3.96-2.376l1.044-2.052c.912.912 2.124 1.656 3.636 2.232 1.512.552 3.072.828 4.68.828 2.256 0 3.948-.408 5.076-1.224 1.128-.84 1.692-1.92 1.692-3.24 0-1.008-.312-1.812-.936-2.412-.6-.6-1.344-1.056-2.232-1.368-.888-.336-2.124-.696-3.708-1.08-1.896-.48-3.408-.936-4.536-1.368a7.774 7.774 0 01-2.916-2.052c-.792-.912-1.188-2.148-1.188-3.708 0-1.272.336-2.424 1.008-3.456.672-1.056 1.704-1.896 3.096-2.52 1.392-.624 3.12-.936 5.184-.936 1.44 0 2.844.204 4.212.612 1.392.384 2.592.924 3.6 1.62l-.9 2.124a11.991 11.991 0 00-3.384-1.548 12.24 12.24 0 00-3.528-.54c-2.208 0-3.876.432-5.004 1.296-1.104.84-1.656 1.932-1.656 3.276 0 1.008.3 1.824.9 2.448.624.6 1.392 1.068 2.304 1.404.936.312 2.184.66 3.744 1.044 1.848.456 3.336.912 4.464 1.368a7.1 7.1 0 012.916 2.016c.792.888 1.188 2.1 1.188 3.636a6.213 6.213 0 01-1.044 3.492c-.672 1.032-1.716 1.86-3.132 2.484-1.416.6-3.156.9-5.22.9z" fill="#232323"/></svg>
